icon-themes/breeze_svg/cmd/32/numberformatdecdecimals.svg

<svg viewBox="0 0 32 32" xmlns="http://www.w3.org/2000/svg"><path d="m23 4a5 5 0 0 0 -5 5v6a5 5 0 0 0 5 5 5 5 0 0 0 5-5v-6a5 5 0 0 0 -5-5zm0 1a4 4 0 0 1 4 4v6a4 4 0 0 1 -4 4 4 4 0 0 1 -4-4v-6a4 4 0 0 1 4-4z" fill="#b3b3b3"/><path d="m11 4a5 5 0 0 0 -5 5v6a5 5 0 0 0 5 5 5 5 0 0 0 5-5v-6a5 5 0 0 0 -5-5zm0 1a4 4 0 0 1 4 4v6a4 4 0 0 1 -4 4 4 4 0 0 1 -4-4v-6a4 4 0 0 1 4-4zm-8 13v2h2v-2z" fill="#4d4d4d"/><path d="m18.884766 20-.884766.884766 4.115234 4.115234-4.115234 4.115234c.0157.0315.884766.884766.884766.884766l4.115234-4.115234 4.115234 4.115234.884766-.884766-4.115234-4.115234 4.115234-4.115234-.884766-.884766-4.115234 4.115234z" fill="#da4453"/></svg>

<svg xmlns="http://www.w3.org/2000/svg" viewBox="0 0 32 32">
    <path
       style="fill:#b3b3b3"
       d="M 23 4 A 5 5 0 0 0 18 9 L 18 15 A 5 5 0 0 0 23 20 A 5 5 0 0 0 28 15 L 28 9 A 5 5 0 0 0 23 4 z M 23 5 A 4 4 0 0 1 27 9 L 27 15 A 4 4 0 0 1 23 19 A 4 4 0 0 1 19 15 L 19 9 A 4 4 0 0 1 23 5 z "
       />
    <path
       style="fill:#4d4d4d"
       d="M 11 4 A 5 5 0 0 0 6 9 L 6 15 A 5 5 0 0 0 11 20 A 5 5 0 0 0 16 15 L 16 9 A 5 5 0 0 0 11 4 z M 11 5 A 4 4 0 0 1 15 9 L 15 15 A 4 4 0 0 1 11 19 A 4 4 0 0 1 7 15 L 7 9 A 4 4 0 0 1 11 5 z M 3 18 L 3 20 L 5 20 L 5 18 L 3 18 z "
       />
    <path
       style="fill:#da4453"
       d="M 18.884766 20 L 18 20.884766 L 22.115234 25 L 18 29.115234 C 18.0157 29.146734 18.884766 30 18.884766 30 L 23 25.884766 L 27.115234 30 L 28 29.115234 L 23.884766 25 L 28 20.884766 L 27.115234 20 L 23 24.115234 L 18.884766 20 z "
       />
</svg>
